X:1
T:Title
%%score 1 2 3 4
L:1/8
M:6/8
K:Bb
V:1 treble nm="Church Organ, Church Organ"
V:2 treble nm="French Horn, French Horn"
V:3 bass nm="Trombone, Trombone"
V:4 bass nm="Tuba, Tuba"
V:1
 F3 =E2 F | d3 c3 | B2 A cBG | F3 .F3 | E2 F A2 G | =E2 F B3 | A2 G c2 d | c3 .c3 | F3 =E2 F | %9
w: By~I.~H.~Meredith * *|||||||||
 d3 c3 | B2 A cBG | F3 .F3 | G2 A B2 c | d3 e2 c | B3 A3 | B3 B3 | d'3 d'2 c' | c' b2- bba | %18
w: |||||||||
 g3 b2 g | g f2- f f2 | b3 b2 c' | d'2 b e'2 d' | c'3 c'2 d' | c'3 c'3 | d'3 d'2 c' | c' b2- bba | %26
w: ||||||||
 g3 b2 g | g f2- f f2 | b3 b2 c' | d'2 e' d'2 b | c'3 c'3 | b3 .b3 |] %32
w: ||||||
V:2
 D3 _D2 =D | F3 F3 | G2 ^F G2 E | D3 .D3 | C2 D E2 E | _D2 =D D3 | =E2 E E2 E | F3 .E3 | %8
w: Come~ with~ the~|wise~ men!~|led~ by~ an y~|sign~ *|This~ the~ ho ly~|prom ised~ One,~|Babe,~ yet~ Lord~ di|vine!~ *|
 D3 _D2 =D | F3 F3 | G2 ^F G2 E | D3 .D3 | E2 ^F G2 A | B2 _A G2 G | F3 F2 E | D3 D3 | %16
w: Won der ful~|Stran ger~|from~ the~ Courts~ a|bove,~ *|In~ the~ time~ ap|point * ed,~ God's~|give~ of~ *|love.~ *|
 [df]3 [df]2 [ce] | [ce] [Bd]2- [Bd][Bd][Af] | [Ge]3 [Bg]2 [Ge] | [Ge] [Fd]2- [Fd] [Fd]2 | %20
w: Hom age~ we~|ren der,~ * * Thou~|King~ and~ De|fend er!~ * *|
 [Bd]3 [Bd]2 [ce] | [df]2 [Bd] [eg]2 [df] | [c=e]3 [ce]2 [df] | [ce]3 [ce]3 | [df]3 [df]2 [ce] | %25
w: Kneel ing~ with~|wise~ men~ great,~ at~|love's~ ho ly~|shrine.~ *|All~ lands~ shall~|
 [ce] [Bd]2- [Bd][Bd][Af] | [Ge]3 [Bg]2 [Ge] | [Ge] [Fd]2- [Fd] [Fd]2 | [Bd]3 [Bd]2 [ce] | %29
w: own~ Thee!~ * * As~|Lord~ shall~ en|throne~ Thee!~ * *|Thine~ is~ the~|
 [df]2 [eg] [df]2 [Bd] | [ce]3 [ce]3 | [Bd]3 .[Bd]3 |] %32
w: king dom,~ and~ the~|glo ry~|Thine!~ *|
V:3
 B,3 G,2 F, | B,3 B,3 | B,2 B, E2 B, | B,3 .B,3 | A,2 A, C2 A, | B,2 B, F,3 | B,2 B, G,2 B, | %7
 A,3 .A,3 | B,3 G,2 F, | B,3 B,3 | B,2 B, E2 B, | B,3 .B,3 | B,2[K:treble] D D2 F | F2 B, B,2 E | %14
 D3 C3 | B,3 B,3 | z6 | z6 | z6 | z6 | z6 | z6 | z6 | z6 | z6 | z6 | z6 | z6 | z6 | z6 | z6 | z6 |] %32
V:4
 B,,3 B,,2 B,, | B,,3 D,3 | E,2 E, E,2 E, | B,,3 .B,,3 | F,2 F, F,2 F, | B,,2 B,, B,,3 | %6
 C,2 C, C,2 C, | F,3 .F,3 | B,,3 B,,2 B,, | B,,3 D,3 | E,2 E, E,2 E, | B,,3 .B,,3 | E,2 D, G,2 F, | %13
 B,3 E,2 E, | F,3 F,3 | B,,3 B,,3 | B,,F,B, DB,F, | B,,F,B, DB,F, | E,G,B, EB,G, | B,,F,B, DB,F, | %20
 B,,F,B, DB,F, | B,,F,B, DB,F, | C,G,B, =ECB, | F,A,C EDC | B,,F,B, DB,F, | B,,F,B, DB,F, | %26
 E,G,B, EB,G, | B,,F,B, DB,F, | B,,F,B, DB,F, | B,,F,B, DB,F, | F,,F,G, A,G,F, | %31
 [B,,F,B,]3 .[B,,F,B,]3 |] %32

